X:51
T:Bonny Lads. 2voices. Dix.51
T:Because He Was A Bonny Lad,aka. Dix.51
M:C
L:1/8
Q:1/4=110
S:Anon. MS dated 1811, from Dixon collection, Holton le Moor, Lincs.
R:reel
N:Repeat signs added at start
O:England;Lincolnshire;Holton le Moor
Z:vmp.R.Greig 2012 <http://www.village-music-project.org.uk>
K:A
[V:1]|:e|(cBA)a fg/a/ ec|dfec dB Be|(cBA)a fg/a/ ec|dfed AA/A/ A:|!
[V:2]|:z|A,2C2D2C2|B,DCA, B,E,”qu. in ms”E,2|A,2C,2D,2C,2|D,B,, C,E,, A,,A,,A,,:|
[V:1]|:e|cAec fAec|dfec dBBe|cAeA fAeA|dfec AA/A/ A:|!
[V:2]|:z|A,2C,2D,2C,2|B,DCA, B,E, E,2|F,2C,2D,2C,2|D,B,, E,E,, A,,A,,A,,:|!

